X: 47
T:Missa Veni Sancte Spiritus / Gloria
N: Derived from Jos0406b-Missa_Veni_sancte_spiritus-Gloria.krn
C: Josquin des Prez
%%abc-version 2.0
%%abcx-abcm2ps-target-version 5.9.1 (29 Sep 2008)
%%abc-creator hum2abc beta
%%abcx-conversion-date 2019/02/12 16:15:40
%%abc-edited-by Jesse Rodin
%%abc-edited-by Will Watson 2011/05/05
%%abcx-initial-encoding-date 2011/05/05/
%%humdrum-veritas 1250990127
%%humdrum-veritas-data 1403213603
%%linebreak <none>
%%barnumbers 0
L: 1/4
M: 2/1
Q: 1/2=120
V: 1 clef=treble
V: 2 clef=treble-8
V: 3 clef=treble-8
V: 4 clef=treble-8
V: 5 clef=bass
K: C
[V:1] G3GG2G2 | 
[V:2] z4c3c | 
[V:3] z8 | 
[V:4] z8 | 
[V:5] z8 | 
[V:1] E2E2F2F2 | 
[V:2] c2c2A2A2 | 
[V:3] z8 | 
[V:4] z8 | 
[V:5] z8 | 
[V:1] D8 | 
[V:2] B2B2G4 | 
[V:3] z8 | 
[V:4] z8 | 
[V:5] z8 | 
[V:1] F4F2A2- | 
[V:2] z2d4c2 | 
[V:3] z8 | 
[V:4] z8 | 
[V:5] z8 | 
[V:1] AGG4^F2 | 
[V:2] B2c2A4 | 
[V:3] z8 | 
[V:4] z8 | 
[V:5] z8 | 
[V:1] G8 | 
[V:2] G4z2c2 | 
[V:3] z8 | 
[V:4] z2G2E2C2 | 
[V:5] z8 | 
[V:1] z2G2A2B2 | 
[V:2] d2e2f2d2 | 
[V:3] z8 | 
[V:4] G4F2G2 | 
[V:5] z8 | 
[V:1] c2A2G2A2 | 
[V:2] c2d2B2c2 | 
[V:3] z8 | 
[V:4] A2F2G2F2 | 
[V:5] z8 | 
[V:1] F2G2A2F2 | 
[V:2] d2B2A3B | 
[V:3] z8 | 
[V:4] D2E2F2D2 | 
[V:5] z8 | 
[V:1] E2F2G2E2 | 
[V:2] c2A2G2c2 | 
[V:3] z8 | 
[V:4] C2D2E2C2 | 
[V:5] z8 | 
[V:1] D2G2A2B2 | 
[V:2] d2e2f2g2- | 
[V:3] z8 | 
[V:4] G4F2E2 | 
[V:5] z8 | 
[V:1] c3BB4- | 
[V:2] gffeg2e2 | 
[V:3] z8 | 
[V:4] A4G3A | 
[V:5] z8 | 
[V:1] B4z4 | 
[V:2] d4z4 | 
[V:3] G3GG2G2 | 
[V:4] BAGFE2E2 | 
[V:5] z4C,3C, | 
[V:1] z8 | 
[V:2] z8 | 
[V:3] E2E2F4 | 
[V:4] G2G2A2A2 | 
[V:5] C,2C,2A,,2A,,2 | 
[V:1] z8 | 
[V:2] z8 | 
[V:3] D2F4F2 | 
[V:4] G2A2A2A2 | 
[V:5] B,,2A,,2D,3D, | 
[V:1] z8 | 
[V:2] z4z2d2 | 
[V:3] F2F4A2- | 
[V:4] A2A2F4 | 
[V:5] D,2D,2D,3D, | 
[V:1] z2G2A2c2 | 
[V:2] e2d2c2A2 | 
[V:3] AGG4^F2 | 
[V:4] z2D2E2C2 | 
[V:5] C,2B,,2A,,4 | 
[V:1] B2d3cBA | 
[V:2] d4z2d2 | 
[V:3] G8 | 
[V:4] D4D4 | 
[V:5] G,,4z2G,,2 | 
[V:1] G2c2B2d2- | 
[V:2] e2e2d3c | 
[V:3] z8 | 
[V:4] z8 | 
[V:5] C,2A,,2B,,2G,,2- | 
[V:1] d2c2B2AG | 
[V:2] B2A3GG2- | 
[V:3] z8 | 
[V:4] z8 | 
[V:5] G,,2A,,2E,4 | 
[V:1] A4G4 | 
[V:2] G2^F2G4 | 
[V:3] z8 | 
[V:4] z2d4e2 | 
[V:5] D,4G,,2C,2- | 
[V:1] z4z2G2 | 
[V:2] c2B2c4 | 
[V:3] z2G2G2G2 | 
[V:4] e4e4 | 
[V:5] C,D,E,2C,2E,2 | 
[V:1] F2G2c3B | 
[V:2] d2B2c3d | 
[V:3] A2G2A3B | 
[V:4] z2e2e2e2 | 
[V:5] D,2E,2A,,2A,2- | 
[V:1] AGA4G2- | 
[V:2] e2d3^c/B/^c2 | 
[V:3] cBAGF2G2 | 
[V:4] A4z2E2 | 
[V:5] A,2F,2D,2E,2 | 
[V:1] G2F2G4 | 
[V:2] d4z2d2 | 
[V:3] A4G4 | 
[V:4] F3DD4 | 
[V:5] D,4G,,4 | 
[V:1] c3cc2c2 | 
[V:2] e2e2A2e2- | 
[V:3] z8 | 
[V:4] A3AA2A2 | 
[V:5] z8 | 
[V:1] B2A4d2- | 
[V:2] e2f3edc | 
[V:3] z8 | 
[V:4] G2F2D2F2 | 
[V:5] z8 | 
[V:1] d2c3BBA | 
[V:2] B2c2d4 | 
[V:3] z8 | 
[V:4] G2A2G4 | 
[V:5] z8 | 
[V:1] c4z4 | 
[V:2] e4e4 | 
[V:3] G8 | 
[V:4] z4E4- | 
[V:5] C,8 | 
[V:1] B4c4 | 
[V:2] g6g2- | 
[V:3] G8 | 
[V:4] E4C4 | 
[V:5] E,8 | 
[V:1] d8 | 
[V:2] g2fef4 | 
[V:3] A8 | 
[V:4] F4D4 | 
[V:5] D,8 | 
[V:1] B3cd2e2- | 
[V:2] g8 | 
[V:3] G8- | 
[V:4] D4z2C2 | 
[V:5] G,,3A,,B,,2C,2- | 
[V:1] e2dcB4 | 
[V:2] e8- | 
[V:3] G8 | 
[V:4] E3FG4 | 
[V:5] C,2B,,A,,E,4 | 
[V:1] A8 | 
[V:2] e8 | 
[V:3] z2A2c3B | 
[V:4] C4C2E2- | 
[V:5] z2A,,2A,,2A,,2 | 
[V:1] z4z2A2 | 
[V:2] z4z2c2 | 
[V:3] A2G4^F2 | 
[V:4] E2D4C2 | 
[V:5] C,2B,,2A,,4 | 
[V:1] B2G2A2B2- | 
[V:2] B2e4d2 | 
[V:3] G4z2G2- | 
[V:4] D2E2C2D2 | 
[V:5] G,,2C,4B,,2 | 
[V:1] BAG4^F2 | 
[V:2] B2c2d4 | 
[V:3] G2G2A4 | 
[V:4] E4F4 | 
[V:5] E,4D,4 | 
[V:1] G4z4 | 
[V:2] B3cd2e2 | 
[V:3] G4F2E2 | 
[V:4] E4z4 | 
[V:5] z2E,2D,2C,2 | 
[V:1] z8 | 
[V:2] A2d4^c2 | 
[V:3] F4G4 | 
[V:4] z8 | 
[V:5] D,4E,4 | 
[V:1] A4A2A2 | 
[V:2] d2f4e2 | 
[V:3] F8 | 
[V:4] z2A2A3B | 
[V:5] D,8 | 
[V:1] G2G4A2 | 
[V:2] e2e2cBcd | 
[V:3] z8 | 
[V:4] c2C4F2 | 
[V:5] z8 | 
[V:1] G2A4GF | 
[V:2] e2c3B/A/B2 | 
[V:3] z8 | 
[V:4] E2F2D4 | 
[V:5] z8 | 
[V:1] E8 | 
[V:2] c4z2c2 | 
[V:3] z8 | 
[V:4] G8 | 
[V:5] C,4C,4 | 
[V:1] z8 | 
[V:2] A3BA2d2- | 
[V:3] F3FF2F2 | 
[V:4] z8 | 
[V:5] D,4D,4 | 
[V:1] z4z2F2 | 
[V:2] d2^c2d4 | 
[V:3] G4A4 | 
[V:4] z8 | 
[V:5] E,4D,4 | 
[V:1] E2F3EDC | 
[V:2] G2d3cc2- | 
[V:3] z8 | 
[V:4] z8 | 
[V:5] z8 | 
[V:1] D4C2c2 | 
[V:2] c2B2c2c2 | 
[V:3] z8 | 
[V:4] z8 | 
[V:5] z2G,2A,3F, | 
[V:1] A2B2c2A2 | 
[V:2] f2d2c2d2 | 
[V:3] z8 | 
[V:4] z8 | 
[V:5] F,2G,2A,2F,2 | 
[V:1] G4G4- | 
[V:2] e4e4- | 
[V:3] c6c2 | 
[V:4] G6G2 | 
[V:5] E,2C,4C,2 | 
[V:1] G2G2G4- | 
[V:2] e2e2e4- | 
[V:3] c8 | 
[V:4] G8 | 
[V:5] C,8- | 
[V:1] G4A4- | 
[V:2] e4e4- | 
[V:3] c6c2 | 
[V:4] E6E2 | 
[V:5] C,4A,,4- | 
[V:1] A2A2G2G2 | 
[V:2] e2e2e2e2 | 
[V:3] c2c2c4 | 
[V:4] E4E4 | 
[V:5] A,,2A,,2C,2C,2 | 
[V:1] A4B4 | 
[V:2] f4g2g2- | 
[V:3] c4B4 | 
[V:4] C2c2d4 | 
[V:5] A,,4G,,4 | 
[V:1] c4A4 | 
[V:2] g2^fe^f4 | 
[V:3] A8 | 
[V:4] e4d4 | 
[V:5] C,4D,4 | 
[V:1] B8 ||  
[V:2] g8 ||  
[V:3] G8 ||  
[V:4] d8 ||  
[V:5] G,,8 ||  
[V:1]  [K:C] [K:clef=treble][M:2/1]G4G2G2- | 
[V:2]  [K:C] [K:clef=treble-8][M:2/1]d4d2e2- | 
[V:3]  [K:C] [K:clef=treble-8][M:2/1]G4G2G2- | 
[V:4]  [K:C] [K:clef=treble-8][M:2/1]G4G2E2- | 
[V:5]  [K:C] [K:clef=bass][M:2/1]G,,4G,,2C,2- | 
[V:1] G2G2G2G2 | 
[V:2] e2e2e2e2 | 
[V:3] G2c2B2c2- | 
[V:4] E2E2GFED | 
[V:5] C,2C,2E,2E,2 | 
[V:1] A4A4 | 
[V:2] e4d4 | 
[V:3] cBAG^F2^F2 | 
[V:4] C2c2A2d2- | 
[V:5] A,,4D,4 | 
[V:1] G8 | 
[V:2] B4z4 | 
[V:3] G4B4 | 
[V:4] d2d3cBA | 
[V:5] G,,2G,4G,2 | 
[V:1] z4A4 | 
[V:2] d4f4- | 
[V:3] B4A4 | 
[V:4] G4d2d2 | 
[V:5] G,4D,4 | 
[V:1] c8 | 
[V:2] f2ede2c2- | 
[V:3] A8 | 
[V:4] c2A2c3d | 
[V:5] A,,4A,,4 | 
[V:1] G4G2A2- | 
[V:2] cdefg2f2- | 
[V:3] c4B2A2- | 
[V:4] e4z4 | 
[V:5] z8 | 
[V:1] A2GFG4 | 
[V:2] f2ede4 | 
[V:3] A2d4^c2 | 
[V:4] z8 | 
[V:5] z8 | 
[V:1] F8 | 
[V:2] f4z4 | 
[V:3] d3cBAA2- | 
[V:4] A3Ad2d2 | 
[V:5] D,3D,D,2D,2 | 
[V:1] z4z2F2 | 
[V:2] z2c4d2 | 
[V:3] A2G2A4 | 
[V:4] d2c2f4 | 
[V:5] F,2E,2F,2D,2 | 
[V:1] G2A4G2 | 
[V:2] e2c2d2e2 | 
[V:3] z8 | 
[V:4] e2E2F2E2 | 
[V:5] C,4z4 | 
[V:1] F2A4G2 | 
[V:2] f3edce2- | 
[V:3] z8 | 
[V:4] D3EF2G2 | 
[V:5] z8 | 
[V:1] F2EDE4 | 
[V:2] edd4^c2 | 
[V:3] z8 | 
[V:4] A2_B2A4 | 
[V:5] z4z2A,,2 | 
[V:1] D8 | 
[V:2] d4z4 | 
[V:3] z2A2d3c | 
[V:4] F4D2G2- | 
[V:5] D,3C,B,,A,,G,,2- | 
[V:1] z8 | 
[V:2] z8 | 
[V:3] BAG2A2B2 | 
[V:4] GFEDC2G2 | 
[V:5] G,,2C,3B,,G,,2 | 
[V:1] z8 | 
[V:2] z8 | 
[V:3] c2d3^c^cB | 
[V:4] F2D2E4 | 
[V:5] A,,2B,,2A,,4 | 
[V:1] F8 | 
[V:2] z4d4 | 
[V:3] d4A4 | 
[V:4] D4z4 | 
[V:5] z4D,4 | 
[V:1] G4G4 | 
[V:2] d4e4 | 
[V:3] B4c4- | 
[V:4] G4E4- | 
[V:5] G,,4C,4 | 
[V:1] A4A4- | 
[V:2] e4f4 | 
[V:3] c4d4 | 
[V:4] E2E2D4 | 
[V:5] A,,4D,4 | 
[V:1] A2G2G4 | 
[V:2] e8 | 
[V:3] B4B4 | 
[V:4] G4E4 | 
[V:5] E,4E,4 | 
[V:1] A4c4- | 
[V:2] e8 | 
[V:3] A8 | 
[V:4] E4z4 | 
[V:5] A,,8 | 
[V:1] c4B4 | 
[V:2] e8 | 
[V:3] z4G4 | 
[V:4] G8 | 
[V:5] E,8 | 
[V:1] A8- | 
[V:2] e8 | 
[V:3] c8 | 
[V:4] A4E2A2- | 
[V:5] A,,8 | 
[V:1] A8 | 
[V:2] f6d2 | 
[V:3] d8 | 
[V:4] AG^FE^F4 | 
[V:5] D,8 | 
[V:1] [M:3/1]G12- | 
[V:2] [M:3/1]d8B4 | 
[V:3] [M:3/1]B8z4 | 
[V:4] [M:3/1]G8z4 | 
[V:5] [M:3/1]G,,8z4 | 
[V:1] G12 | 
[V:2] c8d4 | 
[V:3] e8d4 | 
[V:4] G6A2B4 | 
[V:5] C,8B,,4 | 
[V:1] z12 | 
[V:2] e8e4 | 
[V:3] c4B4c4 | 
[V:4] E6F2G4 | 
[V:5] A,,4E,8 | 
[V:1] A8G4 | 
[V:2] A8d4 | 
[V:3] d6c2B4 | 
[V:4] F8G4 | 
[V:5] D,8G,,4 | 
[V:1] F4E4F4 | 
[V:2] d4c4d4 | 
[V:3] A12 | 
[V:4] A6G2F4 | 
[V:5] D,4A,,4D,4 | 
[V:1] G8z4 | 
[V:2] B6c2d4 | 
[V:3] z4G4B4 | 
[V:4] E4D8 | 
[V:5] G,,8G,,4 | 
[V:1] G4B4c4 | 
[V:2] G8z4 | 
[V:3] c4d4c4 | 
[V:4] C4G4E2C2 | 
[V:5] C,4B,,2G,,2A,,4 | 
[V:1] d8c4 | 
[V:2] G4B4c4 | 
[V:3] B6G2A4 | 
[V:4] G8z4 | 
[V:5] G,,8z4 | 
[V:1] B4A6G2 | 
[V:2] d8B2c2 | 
[V:3] G4D4F4 | 
[V:4] G4A4F4 | 
[V:5] G,4F,4D,4 | 
[V:1] G8^F4 | 
[V:2] d12 | 
[V:3] G4A8 | 
[V:4] E4F4D4 | 
[V:5] E,4D,8 | 
[V:1] [M:2/1]G8 | 
[V:2] [M:2/1]B4z2c2- | 
[V:3] [M:2/1]G4G2E2 | 
[V:4] [M:2/1]D4E4 | 
[V:5] [M:2/1]G,,4C,3B,, | 
[V:1] z2G4F2 | 
[V:2] c2B2c2A2 | 
[V:3] F2G2A4 | 
[V:4] C2D2E2D2 | 
[V:5] A,,2G,,2C,2D,2 | 
[V:1] G2E2D2d2- | 
[V:2] G2g4f2 | 
[V:3] z2c2B2A2 | 
[V:4] G4z4 | 
[V:5] E,2C,2D,4 | 
[V:1] d2c2d2B2 | 
[V:2] g2e2d2e2 | 
[V:3] B2c2G4 | 
[V:4] z8 | 
[V:5] G,,2A,,2B,,2G,,2 | 
[V:1] A3BcBAG | 
[V:2] f3e/d/c2d2- | 
[V:3] z2A4F2 | 
[V:4] z4z2F2 | 
[V:5] D,4z2D,2 | 
[V:1] F2G4^F2 | 
[V:2] d2c2d4 | 
[V:3] A2G2A4 | 
[V:4] D2E2FEDC | 
[V:5] F,2E,2D,4 | 
[V:1] G8 |]  
[V:2] d8 |]  
[V:3] G8 |]  
[V:4] D8 |]  
[V:5] G,,8 |]  



